X: 11843
M: 3/4
L: 1/8
K: G
|:\
d4 g>e | {e2}d4 g>e | {f}ed {e}dc {d}cB | B2 {AB}A4 :|
|:\
ddddcc | {c}B3 c d2 | ddddcc | B3 c d2 |\
g2 f2 e2 | d2 f2 g2 | {f}ed/c/ B2 A2 | {A2}G4 :|


